X:1
T:Puppet On A String
T:Puppet on a string
T:Bill Martin and Phil Coulter
C:Bill Martin, Phil Coulter
Z:All Rights Reserved
L:1/8
M:4/4
K:F
V:1 treble nm="Piano"
%%MIDI program 0
V:1
"F" c4- | c4 BAGF |"C7" E c2 E D B2 D | C2 CD EFGA | G c4 F2 E | B4 D2 C2- | C2 z2 z4 | %7
w: I|_ won- der if one|day that you'll say that you|care if you say you love me|mad- ly I'll glad-|ly be there|_|
 CDEF GA c2- | c2 z2 z4 | A2 c2 F2 ED |"C" EGEC- C z C2 |"C7" B2 B2 BAGF- |"F" F4 z4 | %13
w: like a pup- pet on a string|_|love is just like a|mer- ry go round _ with|all the fun of the fair|_|
 A2 c2 F2 ED |"C" EGEC z4 |"C7" B2 B2 BAGF- |"F" F4 z4 |"Bb" d2 d2 dc B2 |"F" c4 z2 c2 | %19
w: One day I'm feel ing|down on the ground|Then I'm up in the air|_|Are you lead- ing me|on? To-|
"E" =B2 B2 Bc d2 |"C7" e8 |"F" c4 BAGF |"C7" E c2 E D B2 D | C2 CD EFGA | G2 c2 z4 | F2 E2 c2 DC | %26
w: mor- row will you be|gone?|I won- der if one|day that you'll say that you|care If you say you love me|mad- ly|I'll glad- ly be there|
 CDEF G2 A2 |"F" c6 z2 | CDEF G2 A2 |"F" F8 |] %30
w: like a pup- pet on a|string|like a pup- pet on a|string.|

